X:41
T:Aria. TLY.041
M:3/8
L:1/8
Q:3/8=50
S:Wm.Tildesley,Swinton,Lancs.1860s.
R:.Air
O:England.
A:Lancashire.
N:25 bar marked cresc. 32nd. bar first crotchet marked pause, last quaver
N:A marked p. 45th. bar marked fort
H:1860.
Z:vmp.Taz Tarry.
K:D
A|ddd|d2e| (fg).e|d2e| fff| f2g| (ab).g| f2 (dâ€™/câ€™/)|!
bbb| b2 (b/a/)| ggg|g2 (a/g/)| (fe).d| (ag).f| eee|e2:|!
A|aaf| g2e| ffd| e2A| d2d| e2e|f>af| e2a|!
â€œCres.â€ b>câ€™b| (dâ€™câ€™).b| a>ba| (ba).g|f>ga| (ag).f| eee| e2A|!
A>BA|AB=c| (=c3|B2) B|B>cB|Bcd|(d3|c2) A|!
BdB| cec| dfd| ege| f>ga| (gf).e|dâ€™3| b3|!
a>gf| (gf).e| dâ€™3| bcâ€™dâ€™| a>gf| (gf).e| ddd|!
d/c/d/e/f/g/| afd| (AB).c|ddâ€™dâ€™|dâ€™3:|

